assets/svg/1F37A.svg

<svg xmlns="http://www.w3.org/2000/svg" viewBox="0 0 64 64" enable-background="new 0 0 64 64"><g transform="translate(2)"><path d="m29.374 32.617c6.903.38 12.219-7.17 3.432-9.127 1.736-4.699 1.867-10.935-.922-15.779-3.84-6.295-10.263-1.624-10.471 4.175-.598-2.512-3.604-11.375-6.656-11.856-4.321-.543-6.688 6.337-5.46 9.373-1.724-1.693-5.772-4.893-8.192-2.148-2.997 3.652 3.224 4.776 5.358 5.682-2.558.877-.567 3.605.322 5.167 2.177 3.33 4.746 4.162 8.148 5.126-7.345 5.095 11.244 8.03 14.57 8.555" fill="#bbbdbf"/><g fill="#b87d2b"><path d="m55.58 26.333c-.895-5.252-18.12-1.745-18.12-1.745l-1.255 22.968c13.812 11.299 20.272-15.967 19.375-21.22m-19.2 19.05l1-18.308c0 0 13.73-2.793 14.44 1.392.718 4.189-4.433 25.929-15.442 16.916"/><path d="m46.18 59.911c0 2.251-4.542 4.075-10.144 4.075h-16.564c-5.602 0-10.142-1.824-10.142-4.075l2.281-5.562c0-2.251 4.542-4.075 10.144-4.075h11.995c5.603 0 10.146 1.824 10.146 4.075l2.284 5.562"/><path d="m9.08 16.834c0-2.251 4.544-4.075 10.146-4.075h16.566c5.602 0 10.14 1.824 10.14 4.075l-2.281 5.569c0 2.248-4.544 4.075-10.145 4.075h-11.999c-5.599 0-10.14-1.828-10.14-4.075l-2.287-5.569"/></g><path d="m44.11 50.28c0 5.05-4.091 9.136-9.135 9.136h-14.926c-5.05 0-9.142-4.088-9.142-9.136v-25.517c0-5.04 4.095-9.134 9.142-9.134h14.927c5.04 0 9.135 4.09 9.135 9.134v25.517" fill="#e6a42e"/><g fill="#b87d2b"><path d="m19.982 43.37c0 3.173-.276 5.746-.622 5.746h-1.014c-.343 0-.622-2.573-.622-5.746v-16.04c0-3.173.278-5.747.622-5.747h1.014c.345 0 .622 2.573.622 5.747v16.04"/><path d="m27.756 43.37c0 3.173-.277 5.746-.622 5.746h-1.014c-.343 0-.622-2.573-.622-5.746v-16.04c0-3.173.278-5.747.622-5.747h1.014c.345 0 .622 2.573.622 5.747v16.04"/><path d="m36.1 43.37c0 3.173-.275 5.746-.618 5.746h-1.018c-.342 0-.618-2.573-.618-5.746v-16.04c0-3.173.276-5.747.618-5.747h1.018c.343 0 .618 2.573.618 5.747v16.04"/></g><path d="m35.87 13.145c2.496-6.446-3.041-13.836-7.618-6.085-3.934-3.109-9.822-5.162-15.293-4.01-7.174 1.704-4.719 9.259.731 11.247-2.575-.206-11.93-.092-13.334 2.664-1.851 3.942 3.956 8.319 7.225 8.092-2.145 1.114-6.436 3.974-4.581 7.124 2.549 3.978 5.54-1.589 7.06-3.338.04 2.707 3.256 1.659 5.01 1.294 3.84-1.039 5.428-3.224 7.394-6.158 2.573 8.559 11.12-8.208 12.646-11.213" fill="#e6e7e8"/><path d="m14.85 27.416c-5.078-.882-7.672-7.264-.955-7.209-.471-3.706.48-8.258 3.318-11.31 3.85-3.928 7.731.545 6.905 4.792.859-1.724 4.53-7.659 6.829-7.494 3.231.332 3.795 5.727 2.393 7.729 1.537-.941 5.01-2.587 6.311-.185 1.562 3.156-3.149 2.928-4.846 3.227 1.708 1.063-.19 2.714-1.103 3.699-2.139 2.056-4.147 2.224-6.781 2.354 4.481 4.938-9.516 3.946-12.02 3.77" fill="#fff"/></g></svg>

<?xml version="1.0" encoding="UTF-8" standalone="no"?>
<!-- Generator: Adobe Illustrator 16.0.0, SVG Export Plug-In . SVG Version: 6.00 Build 0)  -->

<svg
   xmlns:dc="http://purl.org/dc/elements/1.1/"
   xmlns:cc="http://creativecommons.org/ns#"
   xmlns:rdf="http://www.w3.org/1999/02/22-rdf-syntax-ns#"
   xmlns:svg="http://www.w3.org/2000/svg"
   xmlns="http://www.w3.org/2000/svg"
   xmlns:sodipodi="http://sodipodi.sourceforge.net/DTD/sodipodi-0.dtd"
   xmlns:inkscape="http://www.inkscape.org/namespaces/inkscape"
   version="1.1"
   id="Layer_1"
   x="0px"
   y="0px"
   width="64px"
   height="64px"
   viewBox="0 0 64 64"
   enable-background="new 0 0 64 64"
   xml:space="preserve"
   inkscape:version="0.48.5 r10040"
   sodipodi:docname="1F37A.svg"
   inkscape:export-filename="D:\TESTINGEMOJI\SVGTEST\1F37A.png"
   inkscape:export-xdpi="90"
   inkscape:export-ydpi="90"><metadata
   id="metadata4742"><rdf:RDF><cc:Work
       rdf:about=""><dc:format>image/svg+xml</dc:format><dc:type
         rdf:resource="http://purl.org/dc/dcmitype/StillImage" /><dc:title></dc:title></cc:Work></rdf:RDF></metadata><defs
   id="defs4740" /><sodipodi:namedview
   pagecolor="#ffffff"
   bordercolor="#666666"
   borderopacity="1"
   objecttolerance="10"
   gridtolerance="10"
   guidetolerance="10"
   inkscape:pageopacity="0"
   inkscape:pageshadow="2"
   inkscape:window-width="640"
   inkscape:window-height="480"
   id="namedview4738"
   showgrid="false"
   inkscape:zoom="3.6875"
   inkscape:cx="32"
   inkscape:cy="32"
   inkscape:window-x="754"
   inkscape:window-y="382"
   inkscape:window-maximized="0"
   inkscape:current-layer="Layer_1" />
<g
   id="g4710"
   transform="translate(2,0)">
	<g
   id="g4712">
		<path
   d="m 29.374,32.617 c 6.903,0.38 12.219,-7.17 3.432,-9.127 C 34.542,18.791 34.673,12.555 31.884,7.711 28.044,1.416 21.621,6.087 21.413,11.886 20.815,9.374 17.809,0.511 14.757,0.03 10.436,-0.513 8.069,6.367 9.297,9.403 7.573,7.71 3.525,4.51 1.105,7.255 c -2.997,3.652 3.224,4.776 5.358,5.682 -2.558,0.877 -0.567,3.605 0.322,5.167 2.177,3.33 4.746,4.162 8.148,5.126 -7.345,5.095 11.244,8.029 14.57,8.555"
   id="path4714"
   inkscape:connector-curvature="0"
   style="fill:#bbbdbf" />
	</g>
	<path
   d="M 55.584,26.333 C 54.689,21.081 37.464,24.588 37.464,24.588 L 36.209,47.556 C 50.021,58.855 56.481,31.589 55.584,26.333 z M 36.388,45.383 37.39,27.075 c 0,0 13.73,-2.793 14.44,1.392 0.718,4.189 -4.433,25.929 -15.442,16.916 z"
   id="path4716"
   inkscape:connector-curvature="0"
   style="fill:#b87d2b" />
	<path
   d="m 46.182,59.911 c 0,2.251 -4.542,4.075 -10.144,4.075 H 19.474 c -5.602,0 -10.142,-1.824 -10.142,-4.075 l 2.281,-5.562 c 0,-2.251 4.542,-4.075 10.144,-4.075 h 11.995 c 5.603,0 10.146,1.824 10.146,4.075 l 2.284,5.562 z"
   id="path4718"
   inkscape:connector-curvature="0"
   style="fill:#b87d2b" />
	<path
   d="m 9.083,16.834 c 0,-2.251 4.544,-4.075 10.146,-4.075 h 16.566 c 5.602,0 10.14,1.824 10.14,4.075 l -2.281,5.569 c 0,2.248 -4.544,4.075 -10.145,4.075 H 21.51 c -5.599,0 -10.14,-1.828 -10.14,-4.075 L 9.083,16.834 z"
   id="path4720"
   inkscape:connector-curvature="0"
   style="fill:#b87d2b" />
	<path
   d="m 44.11,50.277 c 0,5.048 -4.091,9.136 -9.135,9.136 H 20.049 c -5.046,0 -9.142,-4.088 -9.142,-9.136 V 24.76 c 0,-5.044 4.095,-9.134 9.142,-9.134 h 14.927 c 5.044,0 9.135,4.09 9.135,9.134 v 25.517 z"
   id="path4722"
   inkscape:connector-curvature="0"
   style="fill:#e6a42e" />
	<path
   d="m 19.982,43.374 c 0,3.173 -0.276,5.746 -0.622,5.746 h -1.014 c -0.343,0 -0.622,-2.573 -0.622,-5.746 V 27.333 c 0,-3.173 0.278,-5.747 0.622,-5.747 h 1.014 c 0.345,0 0.622,2.573 0.622,5.747 v 16.041 z"
   id="path4724"
   inkscape:connector-curvature="0"
   style="fill:#b87d2b" />
	<path
   d="m 27.756,43.374 c 0,3.173 -0.277,5.746 -0.622,5.746 H 26.12 c -0.343,0 -0.622,-2.573 -0.622,-5.746 V 27.333 c 0,-3.173 0.278,-5.747 0.622,-5.747 h 1.014 c 0.345,0 0.622,2.573 0.622,5.747 v 16.041 z"
   id="path4726"
   inkscape:connector-curvature="0"
   style="fill:#b87d2b" />
	<path
   d="m 36.102,43.374 c 0,3.173 -0.275,5.746 -0.618,5.746 h -1.018 c -0.342,0 -0.618,-2.573 -0.618,-5.746 V 27.333 c 0,-3.173 0.276,-5.747 0.618,-5.747 h 1.018 c 0.343,0 0.618,2.573 0.618,5.747 v 16.041 z"
   id="path4728"
   inkscape:connector-curvature="0"
   style="fill:#b87d2b" />
	<g
   id="g4730">
		<path
   d="M 35.87,13.145 C 38.366,6.699 32.829,-0.691 28.252,7.06 24.318,3.951 18.43,1.898 12.959,3.051 5.785,4.755 8.24,12.31 13.69,14.298 11.115,14.092 1.76,14.206 0.356,16.962 -1.495,20.904 4.312,25.281 7.581,25.054 5.436,26.168 1.145,29.028 3,32.178 c 2.549,3.978 5.54,-1.589 7.064,-3.338 0.04,2.707 3.256,1.659 5.013,1.294 3.84,-1.039 5.428,-3.224 7.394,-6.158 2.573,8.559 11.116,-8.208 12.646,-11.213"
   id="path4732"
   inkscape:connector-curvature="0"
   style="fill:#e6e7e8" />
	</g>
	<g
   id="g4734">
		<path
   d="m 14.85,27.416 c -5.078,-0.882 -7.672,-7.264 -0.955,-7.209 -0.471,-3.706 0.48,-8.258 3.318,-11.31 3.85,-3.928 7.731,0.545 6.905,4.792 0.859,-1.724 4.53,-7.659 6.829,-7.494 3.231,0.332 3.795,5.727 2.393,7.729 1.537,-0.941 5.013,-2.587 6.311,-0.185 1.562,3.156 -3.149,2.928 -4.846,3.227 1.708,1.063 -0.19,2.714 -1.103,3.699 -2.139,2.056 -4.147,2.224 -6.781,2.354 4.481,4.938 -9.516,3.946 -12.022,3.77"
   id="path4736"
   inkscape:connector-curvature="0"
   style="fill:#ffffff" />
	</g>
</g>
</svg>
